src/images/bitcore-logo-horizontal-light.svg

<?xml version="1.0" encoding="UTF-8" standalone="no"?>
<svg width="160px" height="39px" viewBox="0 0 160 39" version="1.1" xmlns="http://www.w3.org/2000/svg" xmlns:xlink="http://www.w3.org/1999/xlink" xmlns:sketch="http://www.bohemiancoding.com/sketch/ns">
    <!-- Generator: Sketch 3.3.3 (12072) - http://www.bohemiancoding.com/sketch -->
    <title>bitcore-logo-horizontal-light</title>
    <desc>Created with Sketch.</desc>
    <defs></defs>
    <g id="Page-1" stroke="none" stroke-width="1" fill="none" fill-rule="evenodd" sketch:type="MSPage">
        <g id="bitcore-logo-horizontal-light" sketch:type="MSArtboardGroup">
            <path d="M69.9632012,14.4557229 C70.9686517,14.4557229 71.8376156,14.6325301 72.5706997,14.9861446 C73.3034805,15.3394578 73.910997,15.8180723 74.3926426,16.4210843 C74.8742883,17.0240964 75.2303664,17.7313253 75.4605736,18.5424699 C75.6910841,19.3536145 75.806036,20.2271084 75.806036,21.1629518 C75.806036,22.5978916 75.5391291,23.9548193 75.005012,25.2337349 C74.4711982,26.5129518 73.7432703,27.6256024 72.8218348,28.571988 C71.9003994,29.5180723 70.8115405,30.2668675 69.554955,30.8180723 C68.2983694,31.3689759 66.9371441,31.6445783 65.4712793,31.6445783 C65.2826246,31.6445783 64.9529339,31.6394578 64.4816006,31.6289157 C64.0105706,31.6186747 63.4712973,31.571988 62.8637808,31.4885542 C62.2565676,31.4054217 61.6126547,31.2807229 60.932042,31.1144578 C60.2514294,30.9478916 59.6075165,30.7192771 59,30.428012 L64.4345886,7.74849398 L69.3035165,7 L67.356006,15.048494 C67.7748679,14.8611446 68.1937297,14.7156627 68.6125916,14.611747 C69.0314535,14.5078313 69.4815556,14.4557229 69.9632012,14.4557229 L69.9632012,14.4557229 Z M65.8795255,27.8075301 C66.6126096,27.8075301 67.3035345,27.6307229 67.9529069,27.2771084 C68.601976,26.9237952 69.1621772,26.4506024 69.6335105,25.8578313 C70.1045405,25.2650602 70.4763904,24.5942771 70.7487568,23.8457831 C71.0208198,23.096988 71.157003,22.3171687 71.157003,21.5060241 C71.157003,20.5078313 70.9895796,19.7277108 70.6544294,19.1662651 C70.3192793,18.6048193 69.7014505,18.3240964 68.8009429,18.3240964 C68.507952,18.3240964 68.1257898,18.3759036 67.6544565,18.4798193 C67.1831231,18.5840361 66.7591051,18.8024096 66.3820991,19.135241 L64.309021,27.6828313 C64.4345886,27.7036145 64.5443844,27.7243976 64.6387117,27.7451807 C64.733039,27.7659639 64.8325225,27.7816265 64.9371622,27.7918675 C65.0418018,27.8024096 65.1676727,27.8075301 65.3141682,27.8075301 L65.8795255,27.8075301 L65.8795255,27.8075301 Z M81.711958,31.2078313 L77.0626216,31.2078313 L80.9894895,14.7987952 L85.6697628,14.7987952 L81.711958,31.2078313 L81.711958,31.2078313 Z M83.9736907,12.8024096 C83.3243183,12.8024096 82.738033,12.6099398 82.2145315,12.2253012 C81.69103,11.8403614 81.4292793,11.253012 81.4292793,10.4626506 C81.4292793,10.0259036 81.5181471,9.61506024 81.6961862,9.23042169 C81.8742252,8.84578313 82.1095886,8.51295181 82.4028829,8.23222892 C82.6961772,7.95150602 83.0364835,7.72771084 83.4238018,7.56144578 C83.8114234,7.39518072 84.2248258,7.31174699 84.6646156,7.31174699 C85.313988,7.31174699 85.9002733,7.50421687 86.4237748,7.88885542 C86.9472763,8.27379518 87.209027,8.86114458 87.209027,9.65150602 C87.209027,10.088253 87.1201592,10.4990964 86.9421201,10.8837349 C86.7640811,11.2686747 86.5284144,11.6012048 86.2354234,11.8819277 C85.9421291,12.1629518 85.6018228,12.3864458 85.2145045,12.5527108 C84.8268829,12.7192771 84.4134805,12.8024096 83.9736907,12.8024096 L83.9736907,12.8024096 Z M90.4446667,10.7123494 L95.3135946,9.96355422 L94.1200961,14.7987952 L99.3344865,14.7987952 L98.3921231,18.6048193 L93.208973,18.6048193 L91.8268198,24.3448795 C91.7012523,24.8231928 91.6226967,25.2701807 91.5914565,25.6861446 C91.5599129,26.1021084 91.6120811,26.4608434 91.7482643,26.7623494 C91.8844474,27.0641566 92.1201141,27.2978916 92.4552643,27.4644578 C92.7901111,27.6307229 93.2508288,27.7138554 93.8374174,27.7138554 C94.339991,27.7138554 94.8267928,27.6671687 95.2981261,27.573494 C95.7691562,27.4801205 96.2456456,27.35 96.7272913,27.1837349 L97.0727538,30.7400602 C96.4446126,30.9686747 95.764,31.1662651 95.0309159,31.3328313 C94.2981351,31.4990964 93.4288679,31.5822289 92.4237207,31.5822289 C90.9787838,31.5822289 89.8583814,31.3689759 89.0625135,30.9427711 C88.2666456,30.5162651 87.7012883,29.9340361 87.3661381,29.1957831 C87.0312913,28.4575301 86.8844925,27.6099398 86.9263483,26.6533133 C86.9682042,25.6966867 87.115003,24.6879518 87.3661381,23.6274096 L90.4446667,10.7123494 L90.4446667,10.7123494 Z M99.4915976,24.6569277 C99.4915976,23.2424699 99.7221081,21.9114458 100.182826,20.6635542 C100.643544,19.4159639 101.303228,18.3240964 102.16188,17.388253 C103.020532,16.4524096 104.062378,15.7138554 105.28742,15.1731928 C106.512462,14.6325301 107.879147,14.3620482 109.386868,14.3620482 C110.329231,14.3620482 111.172111,14.4506024 111.915508,14.6274096 C112.659207,14.8042169 113.33436,15.0379518 113.941877,15.3292169 L112.339829,18.9478916 C111.920967,18.7816265 111.486333,18.6307229 111.036231,18.4954819 C110.585826,18.3605422 110.03624,18.2927711 109.386868,18.2927711 C107.816363,18.2927711 106.580706,18.8177711 105.680198,19.8680723 C104.779691,20.9183735 104.329285,22.3481928 104.329285,24.1575301 C104.329285,25.2183735 104.559796,26.0762048 105.020514,26.7313253 C105.481231,27.3864458 106.329267,27.7138554 107.564925,27.7138554 C108.172138,27.7138554 108.758727,27.651506 109.324084,27.5268072 C109.889441,27.4021084 110.392015,27.2460843 110.831805,27.0587349 L111.177267,30.7710843 C110.590982,31 109.947069,31.2027108 109.245529,31.3795181 C108.543988,31.5563253 107.690492,31.6445783 106.685345,31.6445783 C105.386904,31.6445783 104.287429,31.4575301 103.386922,31.0831325 C102.486414,30.7087349 101.743018,30.2045181 101.156733,29.5701807 C100.570144,28.9358434 100.146126,28.1921687 99.8843754,27.3394578 C99.6226246,26.4870482 99.4915976,25.5927711 99.4915976,24.6569277 L99.4915976,24.6569277 Z M120.318526,31.6445783 C119.208739,31.6445783 118.245447,31.4783133 117.428652,31.1454819 C116.611856,30.8126506 115.936399,30.3448795 115.402586,29.7415663 C114.868468,29.1385542 114.465378,28.4262048 114.193012,27.6048193 C113.920949,26.7834337 113.784766,25.873494 113.784766,24.875 C113.784766,23.6274096 113.988889,22.3795181 114.397438,21.1316265 C114.805685,19.8837349 115.407742,18.7608434 116.20361,17.7623494 C116.999477,16.7641566 117.973081,15.9478916 119.125027,15.3135542 C120.27667,14.6792169 121.596039,14.3620482 123.083135,14.3620482 C124.171994,14.3620482 125.130129,14.5286145 125.957237,14.8611446 C126.784649,15.1939759 127.465261,15.6620482 127.999075,16.2650602 C128.533192,16.8680723 128.936282,17.5804217 129.208649,18.4021084 C129.480712,19.223494 129.616895,20.1334337 129.616895,21.1316265 C129.616895,22.3795181 129.417928,23.6274096 129.019994,24.875 C128.622363,26.1228916 128.035775,27.2460843 127.260835,28.2442771 C126.486198,29.2424699 125.517447,30.0587349 124.355189,30.6930723 C123.192931,31.3274096 121.847477,31.6445783 120.318526,31.6445783 L120.318526,31.6445783 Z M122.643345,18.2927711 C121.952117,18.2927711 121.344904,18.4903614 120.821402,18.8855422 C120.297598,19.2807229 119.858111,19.7798193 119.502033,20.3828313 C119.145955,20.9861446 118.879048,21.6463855 118.701009,22.3638554 C118.52297,23.0813253 118.433799,23.7623494 118.433799,24.4072289 C118.433799,25.4677711 118.601526,26.2840361 118.936372,26.8560241 C119.271523,27.428012 119.878736,27.7138554 120.758315,27.7138554 C121.449544,27.7138554 122.056757,27.5162651 122.580258,27.1213855 C123.104063,26.7262048 123.543853,26.2271084 123.899628,25.6237952 C124.255706,25.0207831 124.522916,24.3605422 124.700652,23.6427711 C124.878691,22.9253012 124.967862,22.2442771 124.967862,21.5996988 C124.967862,20.5388554 124.800135,19.7225904 124.465288,19.1506024 C124.130138,18.5786145 123.522925,18.2927711 122.643345,18.2927711 L122.643345,18.2927711 Z M143.501514,18.7918675 C143.082652,18.6879518 142.669249,18.5891566 142.2607,18.4954819 C141.852453,18.4021084 141.250396,18.3551205 140.454529,18.3551205 C140.161234,18.3551205 139.8367,18.3813253 139.480622,18.4331325 C139.124544,18.485241 138.831553,18.5424699 138.601042,18.6048193 L135.554057,31.2078313 L130.87348,31.2078313 L134.642934,15.6722892 C135.543745,15.3813253 136.554048,15.1057229 137.67445,14.8457831 C138.794853,14.5858434 140.056595,14.4557229 141.459676,14.4557229 C141.983177,14.4557229 142.564306,14.5024096 143.203063,14.5960843 C143.84182,14.689759 144.402021,14.8403614 144.883667,15.048494 L143.501514,18.7918675 L143.501514,18.7918675 Z M144.569748,24.7816265 C144.569748,23.4506024 144.805111,22.1611446 145.276444,20.913253 C145.747778,19.6653614 146.412619,18.5581325 147.27127,17.5909639 C148.129922,16.6237952 149.171769,15.8439759 150.396811,15.2512048 C151.621853,14.6584337 152.977922,14.3620482 154.464715,14.3620482 C155.197799,14.3620482 155.878411,14.4662651 156.506553,14.6740964 C157.134997,14.8819277 157.684583,15.1837349 158.155916,15.5786145 C158.626946,15.9737952 158.99364,16.4575301 159.25539,17.0295181 C159.517141,17.6012048 159.648168,18.2512048 159.648168,18.9792169 C159.648168,20.1436747 159.386114,21.1316265 158.862613,21.9427711 C158.339111,22.7539157 157.611486,23.4141566 156.679435,23.9237952 C155.747384,24.4331325 154.642754,24.8024096 153.36524,25.0310241 C152.08803,25.2599398 150.695261,25.3743976 149.187237,25.3743976 C149.334036,26.2478916 149.653414,26.8665663 150.145372,27.2304217 C150.637634,27.5942771 151.41773,27.776506 152.485661,27.776506 C153.155961,27.776506 153.836574,27.7192771 154.527802,27.6048193 C155.218727,27.4903614 155.868099,27.3186747 156.475312,27.0900602 L156.820775,30.7400602 C156.234489,30.9686747 155.485634,31.1768072 154.574814,31.3638554 C153.663691,31.5512048 152.674315,31.6445783 151.606081,31.6445783 C150.30764,31.6445783 149.213625,31.4626506 148.323429,31.0987952 C147.433538,30.7346386 146.711069,30.2409639 146.156024,29.6168675 C145.600979,28.9930723 145.197889,28.2650602 144.946754,27.4331325 C144.695315,26.6012048 144.569748,25.7174699 144.569748,24.7816265 L144.569748,24.7816265 Z M153.711006,18.0433735 C152.642772,18.0433735 151.705565,18.4228916 150.899384,19.1819277 C150.093204,19.9409639 149.564243,20.9445783 149.313108,22.1921687 C150.61155,22.1506024 151.658553,22.0415663 152.45442,21.864759 C153.250288,21.6879518 153.868117,21.4746988 154.307604,21.2253012 C154.747393,20.9756024 155.040688,20.7054217 155.187486,20.4141566 C155.333982,20.1228916 155.407381,19.8319277 155.407381,19.5406627 C155.407381,18.5424699 154.841721,18.0433735 153.711006,18.0433735 L153.711006,18.0433735 Z" id="Imported-Layers-Copy-17" fill="#FFFFFF" sketch:type="MSShapeGroup"></path>
            <g id="Imported-Layers-Copy-18" sketch:type="MSLayerGroup" fill="#F9B544">
                <path d="M27.4713886,24.6905012 L39.6122318,32.6773846 C37.9578285,12.9512476 25.3932103,3.16454066 21.1740394,0.41463761 L21.1740394,14.4678232 C23.0681985,15.8760719 26.4221253,19.0992388 27.4713886,24.6905012" id="Fill-1" sketch:type="MSShapeGroup"></path>
                <path d="M0.0684533625,32.4696102 L12.232299,24.5590883 C12.7188883,22.0569163 14.1839641,18.0843408 18.5199164,14.5921326 L18.5199164,0.511421412 C2.27668369,12.6102845 0.271051418,27.6215409 0.0684533625,32.4696102" id="Fill-2" sketch:type="MSShapeGroup"></path>
                <path d="M12.7905496,27.3702582 L1.52114335,34.6983014 C19.5567938,42.3273512 33.5971044,37.0868191 38.1462712,34.8989724 L26.8892509,27.4927918 C24.8783104,28.3869321 19.5629867,30.0961873 12.7905496,27.3702582" id="Fill-3" sketch:type="MSShapeGroup"></path>
            </g>
        </g>
    </g>
</svg>

<svg width="160" height="39" viewBox="0 0 160 39" xmlns="http://www.w3.org/2000/svg"><title>bitcore-logo-horizontal-light</title><g fill="none" fill-rule="evenodd"><path d="M69.963 14.456c1.006 0 1.875.177 2.608.53.736.353 1.34.832 1.826 1.435.48.607.837 1.31 1.068 2.125.23.812.346 1.685.346 2.62 0 1.436-.268 2.793-.8 4.072-.536 1.28-1.264 2.392-2.185 3.338-.922.946-2.01 1.695-3.267 2.246-1.257.55-2.618.827-4.084.827-.187 0-.517-.006-.988-.016-.47-.01-1.01-.057-1.618-.14-.607-.084-1.25-.21-1.932-.375-.68-.166-1.324-.395-1.932-.686L64.44 7.75 69.303 7l-1.95 8.048c.42-.187.84-.332 1.258-.436.418-.104.87-.156 1.35-.156zM65.88 27.808c.733 0 1.424-.177 2.073-.53.65-.354 1.21-.827 1.68-1.42.472-.593.843-1.264 1.116-2.012.27-.75.404-1.53.404-2.34 0-.998-.167-1.778-.503-2.34-.334-.56-.952-.842-1.852-.842-.293 0-.675.052-1.147.156-.47.104-.894.322-1.27.655l-2.073 8.548c.124.02.233.04.33.062.092.02.192.037.296.047.105.01.23.016.377.016h.567zm15.832 3.4h-4.65l3.927-16.41h4.68l-3.96 16.41zm2.262-18.406c-.65 0-1.236-.192-1.76-.577-.523-.385-.785-.972-.785-1.762 0-.437.085-.848.263-1.233.178-.384.414-.717.707-.998.294-.28.634-.504 1.02-.67.39-.167.803-.25 1.243-.25.65 0 1.235.192 1.76.577.522.38.784.97.784 1.76 0 .435-.09.846-.268 1.23-.18.386-.416.718-.71 1-.292.28-.632.504-1.02.67-.387.167-.8.25-1.24.25zm6.47-2.09l4.87-.748L94.12 14.8h5.214l-.942 3.805H93.21l-1.383 5.74c-.126.478-.204.925-.236 1.34-.03.417.025.776.16 1.077.137.302.37.536.708.702.335.167.796.25 1.382.25.502 0 .99-.047 1.46-.14.47-.094.95-.224 1.43-.39l.345 3.556c-.628.23-1.31.426-2.042.593-.732.166-1.6.25-2.606.25-1.445 0-2.566-.214-3.36-.64-.797-.427-1.363-1.01-1.698-1.747-.337-.738-.484-1.586-.44-2.543.04-.956.19-1.965.44-3.026l3.08-12.915zm9.048 13.945c0-1.415.23-2.746.69-3.993.462-1.248 1.12-2.34 1.98-3.276.86-.936 1.9-1.674 3.125-2.215 1.225-.54 2.592-.81 4.1-.81.942 0 1.785.088 2.53.264.742.177 1.417.41 2.025.702l-1.602 3.615c-.42-.166-.854-.317-1.304-.453-.45-.134-1-.202-1.65-.202-1.57 0-2.805.526-3.706 1.576-.9 1.05-1.35 2.48-1.35 4.29 0 1.06.23 1.918.69 2.573.46.654 1.31.982 2.545.982.607 0 1.194-.062 1.76-.187.564-.125 1.067-.28 1.507-.468l.345 3.71c-.586.23-1.23.432-1.93.61-.703.175-1.557.264-2.562.264-1.298 0-2.398-.186-3.298-.56-.9-.375-1.644-.88-2.23-1.514-.587-.635-1.01-1.38-1.273-2.23-.26-.854-.392-1.748-.392-2.684zm20.827 6.988c-1.11 0-2.078-.167-2.89-.5-.82-.332-1.497-.8-2.03-1.403-.535-.603-.938-1.316-1.21-2.137-.27-.822-.408-1.732-.408-2.73 0-1.248.204-2.495.612-3.743.41-1.248 1.01-2.37 1.807-3.37.796-.998 1.77-1.814 2.92-2.448 1.154-.635 2.473-.952 3.96-.952 1.09 0 2.047.167 2.874.5.828.332 1.508.8 2.042 1.403.533.603.936 1.315 1.21 2.137.27.82.407 1.73.407 2.73 0 1.248-.2 2.495-.597 3.743-.398 1.248-.984 2.37-1.76 3.37-.774.997-1.743 1.814-2.905 2.448-1.16.634-2.507.952-4.035.952zm2.32-13.352c-.69 0-1.298.197-1.82.593-.524.395-.964.894-1.32 1.497-.356.603-.623 1.263-.8 1.98-.18.718-.268 1.4-.268 2.044 0 1.06.168 1.877.502 2.45.336.57.943.857 1.822.857.692 0 1.3-.198 1.822-.593.523-.39.963-.89 1.32-1.493.355-.603.622-1.263.8-1.98.18-.72.267-1.4.267-2.044 0-1.06-.168-1.876-.503-2.45-.335-.57-.942-.856-1.822-.856zm20.86.5c-.42-.105-.834-.204-1.24-.298-.41-.093-1.01-.14-1.807-.14-.294 0-.618.026-.974.078-.355.052-.648.11-.88.172l-3.046 12.603h-4.68l3.77-15.536c.9-.29 1.91-.566 3.03-.826 1.12-.26 2.383-.39 3.786-.39.525 0 1.106.046 1.745.14.64.094 1.2.244 1.68.452l-1.38 3.744zm1.067 5.99c0-1.332.234-2.622.705-3.87.472-1.248 1.137-2.355 1.995-3.322.86-.963 1.902-1.743 3.127-2.34 1.225-.59 2.58-.885 4.068-.885.733 0 1.413.104 2.042.312.628.208 1.178.51 1.65.905.47.395.837.88 1.098 1.45.262.57.393 1.22.393 1.95 0 1.165-.262 2.153-.785 2.964-.523.81-1.25 1.47-2.183 1.98-.934.51-2.038.88-3.316 1.108-1.275.23-2.67.345-4.176.345.147.873.466 1.492.958 1.855.494.365 1.274.548 2.34.548.67 0 1.353-.057 2.044-.17.69-.116 1.34-.287 1.947-.516l.347 3.65c-.586.23-1.334.438-2.245.625-.91.186-1.9.28-2.97.28-1.297 0-2.39-.18-3.282-.546-.89-.365-1.612-.86-2.167-1.483-.555-.623-.958-1.35-1.21-2.183-.25-.832-.376-1.716-.376-2.65zm9.14-6.74c-1.068 0-2.005.38-2.81 1.14-.808.758-1.337 1.762-1.588 3.01 1.3-.042 2.345-.15 3.14-.328.796-.177 1.414-.39 1.854-.64.44-.25.733-.52.88-.81.146-.292.22-.583.22-.874 0-.995-.566-1.494-1.697-1.494z" fill="#FFF"/><path d="M27.47 24.69l12.142 7.987C37.958 12.95 25.392 3.165 21.174.415v14.053c1.894 1.408 5.248 4.63 6.297 10.223M.07 32.47l12.164-7.91c.487-2.503 1.952-6.476 6.288-9.968V.512C2.277 12.61.27 27.62.068 32.47m12.722-5.1L1.52 34.698c18.037 7.63 32.077 2.39 36.626.2L26.89 27.494c-2.012.894-7.327 2.603-14.1-.123" fill="#F9B544"/></g></svg>
